!!!!SEGMENT: Gsc2015-Deus_regnorum.krn
!!!id: Gsc2015
!!!AGN: Motet
!!!SCT: Simon Frisch
!!!voices: 4
!!!COM: Mathieu Gascongne
!!!OTL: Deus regnorum
**kern	**text	**kern	**text	**kern	**text	**kern	**text
*part4	*part4	*part3	*part3	*part2	*part2	*part1	*part1
*staff4	*staff4	*staff3	*staff3	*staff2	*staff2	*staff1	*staff1
*I"Bassus	*	*I"Tenor	*	*I"Altus	*	*I"Superius	*
*I'B	*	*I'T	*	*I'A	*	*I'S	*
*clefF4	*	*clefGv2	*	*clefGv2	*	*clefG2	*
*k[b-]	*	*k[b-]	*	*k[b-]	*	*k[b-]	*
*F:	*	*F:	*	*F:	*	*F:	*
*M2/1	*	*M2/1	*	*M2/1	*	*M2/1	*
*met(C|)	*	*met(C|)	*	*met(C|)	*	*met(C|)	*
!!section: Prima pars: Deus regnorum
!!!OMD: Prima pars: Deus regnorum
0G	De-	0G	De-	0d	De-	0g	De-
=1	=1	=1	=1	=1	=1	=1	=1
1G	-us	1.d	-us	1g	-us	1b-y	-us
1D	reg-	.	.	1f	reg-	1a	reg-
.	.	2c	reg-	.	.	.	.
=2	=2	=2	=2	=2	=2	=2	=2
0G	-no-	0B-y	-no-	0d	-no-	2g	-no-
.	.	.	.	.	.	1b-y	.
.	.	.	.	.	.	4a	.
.	.	.	.	.	.	4g	.
=3	=3	=3	=3	=3	=3	=3	=3
0D	-rum	0A	-rum	0d	-rum	0f	-rum
=4	=4	=4	=4	=4	=4	=4	=4
1r	.	1r	.	1r	.	1r	.
1G	et	1B-y	et	1d	et	1g	et
=5	=5	=5	=5	=5	=5	=5	=5
1.F	chri-	1.c	chri-	1.f	chri-	1.a	chri-
2F	-sti-	2c	-sti-	2f	-sti-	2a	-sti-
=6	=6	=6	=6	=6	=6	=6	=6
1F	-a-	1c	-a-	1f	-a-	1a	-a-
[1BB-y	-nis-	[1d	-nis-	[1f	-nis-	[1b-y	-nis-
=7	=7	=7	=7	=7	=7	=7	=7
2BB-]	.	2d]	.	2f]	.	2b-]	.
2BB-y	-si-	2d	-si-	2f	-si-	2b-y	-si-
1BB-y	-mi	1d	-mi	1f	-mi	1b-y	-mi
=8	=8	=8	=8	=8	=8	=8	=8
1F	ma-	1c	ma-	1.f	ma-	1a	ma-
2F	-xi-	2c	-xi-	.	.	2a	-xi-
2D	-me	[2d	-me	2f	-xi-	2a	-me
=9	=9	=9	=9	=9	=9	=9	=9
1.G	pro-	4d]	.	1d	-me	1.b-y	pro-
.	.	4c	.	.	.	.	.
.	.	4B-y	pro-	.	.	.	.
.	.	4A	.	.	.	.	.
.	.	2B-y	-tec-	1g	pro-	.	.
4F	.	2c	.	.	.	4a	.
4E	.	.	.	.	.	4g	.
=10	=10	=10	=10	=10	=10	=10	=10
2.D	-tec-	1d	-tor	1.f	-tec-	1b-y	-tec-
4E	.	.	.	.	.	.	.
2.F	-tor	2.c	reg-	.	.	2.a	-tor
.	.	.	.	4e	.	.	.
4G	.	4B-y	.	4d	.	4b-y	.
=11	=11	=11	=11	=11	=11	=11	=11
2A	reg-	2A	.	2c	-ctor	2cc	reg-
2.B-y	.	2.G	.	2B-y	.	1dd	.
.	.	.	.	2d	reg-	.	.
4A	.	4A	.	.	.	.	.
2G	.	2B-y	.	2e	.	4cc	.
.	.	.	.	.	.	4b-y	.
=12	=12	=12	=12	=12	=12	=12	=12
1F	-ni,	2c	.	1f	-ni,	1a	-ni,
.	.	1d	.	.	.	.	.
1BB-y	pro-	.	.	2r	.	1dd	pro-
.	.	4c	.	[2f	pro-	.	.
.	.	4B-y	.	.	.	.	.
=13	=13	=13	=13	=13	=13	=13	=13
2F	-tec-	2A	.	4f]	.	2cc	-tec-
.	.	.	.	4e	.	.	.
2G	.	2B-y	.	1d	-tec-	1b-y	.
1E	.	1G	-ni,	.	.	.	.
.	.	.	.	2c	.	4a	.
.	.	.	.	.	.	4g	.
=14	=14	=14	=14	=14	=14	=14	=14
2D	-tor	2.A	[pro-	2d	-tor	2.f	-tor
2.F	reg-	.	.	4c	.	.	.
.	.	4B-y	.	4B-y	.	4g	.
.	.	2c	-tec-	2A	.	2a	.
4E	.	.	.	.	.	.	.
4D	.	[2d	-tor	[2f	reg-	[2b-y	reg-
4C	.	.	.	.	.	.	.
=15	=15	=15	=15	=15	=15	=15	=15
2BB-y	.	2d]	.	2f]	.	4b-]	.
.	.	.	.	.	.	4a	.
2C	.	4c	.	2e	.	1g	.
.	.	4B-y	.	.	.	.	.
1D	.	1A	reg-	1d	.	.	.
.	.	.	.	.	.	2f#i	.
=16	=16	=16	=16	=16	=16	=16	=16
0GG	-ni	0G	-ni]	1d	-ni	0g	-ni
.	.	.	.	1r	.	.	.
=17	=17	=17	=17	=17	=17	=17	=17
0r	.	0r	.	1g	da	1r	.
.	.	.	.	2g	ser-	1dd	da
.	.	.	.	2f	-vo	.	.
=18	=18	=18	=18	=18	=18	=18	=18
0r	.	0r	.	2d	tu-	2dd	ser-
.	.	.	.	2e	-o	2cc	-vo
.	.	.	.	[1f	re-	2a	tu-
.	.	.	.	.	.	2b-y	-o
=19	=19	=19	=19	=19	=19	=19	=19
0r	.	0r	.	2f]	.	1.cc	re-
.	.	.	.	4e	.	.	.
.	.	.	.	4d	.	.	.
.	.	.	.	2.c	.	.	.
.	.	.	.	.	.	4b-y	.
.	.	.	.	4d	.	4a	.
=20	=20	=20	=20	=20	=20	=20	=20
0r	.	0r	.	2e	.	2g	.
.	.	.	.	2f	.	2a	.
.	.	.	.	2d	-gi	2f	-gi
.	.	.	.	[2f	no-	[2a	no-
=21	=21	=21	=21	=21	=21	=21	=21
0r	.	0r	.	4f]	.	4a]	.
.	.	.	.	4e	.	4g	.
.	.	.	.	1d	.	2f	.
.	.	.	.	.	.	1e	.
.	.	.	.	2c#i	.	.	.
=22	=22	=22	=22	=22	=22	=22	=22
1r	.	1r	.	2d	-stro	2d	-stro
.	.	.	.	4B-y	Fran-	2f	Fran-
.	.	.	.	4A	.	.	.
1G	da	1r	.	4B-y	.	2g	.
.	.	.	.	4c	.	.	.
.	.	.	.	[2d	.	[2b-y	.
=23	=23	=23	=23	=23	=23	=23	=23
2G	ser-	1r	.	4d]	.	4b-]	.
.	.	.	.	4c	.	4a	.
2F	-vo	.	.	2A	.	1a	-cis-
2D	tu-	1d	da	1B-y	-cis-	.	.
2E	-o	.	.	.	.	2g	.
=24	=24	=24	=24	=24	=24	=24	=24
1.F	Fran-	2d	ser-	1A	-co	0a	-co
.	.	2c	-vo	.	.	.	.
.	.	2A	tu-	1r	.	.	.
4E	.	2B-y	-o	.	.	.	.
4D	.	.	.	.	.	.	.
=25	=25	=25	=25	=25	=25	=25	=25
2.C	.	1.c	re-	0r	.	0r	.
4D	.	.	.	.	.	.	.
2E	.	.	.	.	.	.	.
2F	.	4B-y	.	.	.	.	.
.	.	4A	.	.	.	.	.
=26	=26	=26	=26	=26	=26	=26	=26
1BB-y	-cis-	4G	-gi	0r	.	0r	.
.	.	4F	.	.	.	.	.
.	.	1B-y	nos-	.	.	.	.
1C	.	.	.	.	.	.	.
.	.	2A	.	.	.	.	.
=27	=27	=27	=27	=27	=27	=27	=27
1BB-y	-co	2B-y	-tro,	0r	.	0r	.
.	.	2.d	[re-	.	.	.	.
2r	.	.	.	.	.	.	.
.	.	4c	.	.	.	.	.
2BB-y	re-	4B-y	.	.	.	.	.
.	.	4A	.	.	.	.	.
=28	=28	=28	=28	=28	=28	=28	=28
1.D	.	2B-y	.	0r	.	0r	.
.	.	2A	.	.	.	.	.
.	.	2.F	.	.	.	.	.
4C	.	.	.	.	.	.	.
4BB-y	.	4G	.	.	.	.	.
=29	=29	=29	=29	=29	=29	=29	=29
2C	.	2A	.	0r	.	0r	.
2D	.	2B-y	.	.	.	.	.
2E	.	2G	-gi	.	.	.	.
[2F	-gi	[2A	nos-	.	.	.	.
=30	=30	=30	=30	=30	=30	=30	=30
4F]	.	4A]	.	0r	.	0r	.
4E	.	4G	.	.	.	.	.
1D	nos-	2F	.	.	.	.	.
.	.	1E	.	.	.	.	.
2C#i	.	.	.	.	.	.	.
=31	=31	=31	=31	=31	=31	=31	=31
1D	-tro	1D	-tro]	1r	.	1r	.
1D	de	1A	de	1d	de	1f	de
=32	=32	=32	=32	=32	=32	=32	=32
1C	hos-	1c	hos-	1e	hos-	1g	hos-
1BB-y	-te	1d	-te	[1f	-te	1b-y	-te
=33	=33	=33	=33	=33	=33	=33	=33
1F	tri-	2c	tri-	2f]	.	2a	tri-
.	.	4B-y	.	2d	tri-	4g	.
.	.	4A	.	.	.	4f	.
2E	.	2B-y	.	[1e-X	-um-	2g	.
2C	.	[2c	-um-	.	.	[2a	-um-
=34	=34	=34	=34	=34	=34	=34	=34
1E	-um-	4c]	.	2e-]	.	2a]	.
.	.	4B-y	.	.	.	.	.
.	.	4A	.	2c	.	2g	.
.	.	4G	.	.	.	.	.
1D	-phum,	1A	-phum,	1d	-phum,	1f	-phum,
=35	=35	=35	=35	=35	=35	=35	=35
1r	.	1r	.	1r	.	1r	.
1D	de	1A	de	1d	de	1f	de
=36	=36	=36	=36	=36	=36	=36	=36
1C	hos-	1c	hos-	1e	hos-	1g	hos-
1BB-y	-te	1d	-te	[1f	-te	1b-y	-te
=37	=37	=37	=37	=37	=37	=37	=37
1F	tri-	2c	tri-	2f]	.	2a	tri-
.	.	4B-y	.	2d	tri-	4g	.
.	.	4A	.	.	.	4f	.
2E	.	2B-y	.	[1e	-um-	2g	.
2C	.	[2c	.	.	.	[2a	.
=38	=38	=38	=38	=38	=38	=38	=38
1E	-um-	4c]	.	2e]	.	2a]	.
.	.	4B-y	.	.	.	.	.
.	.	4A	.	2c	.	1g	-um-
.	.	4G	.	.	.	.	.
1D	.	1A	-um-	1d	.	.	.
.	.	.	.	.	.	2f#i	.
=39	=39	=39	=39	=39	=39	=39	=39
0GG	-phum	1G	-phum	0B-y	-phum.	0g	-phum.
.	.	2r	.	.	.	.	.
.	.	2G	ut	.	.	.	.
=40	=40	=40	=40	=40	=40	=40	=40
2r	.	1B-y	qui	0r	.	0r	.
2D	ut	.	.	.	.	.	.
1F	qui	1A	tu-	.	.	.	.
=41	=41	=41	=41	=41	=41	=41	=41
1E	tu-	2.G	-a	0r	.	0r	.
.	.	4A	.	.	.	.	.
2.D	-a	4B-y	.	.	.	.	.
.	.	4c	.	.	.	.	.
.	.	[2d	.	.	.	.	.
4E	.	.	.	.	.	.	.
=42	=42	=42	=42	=42	=42	=42	=42
4F	.	2d]	.	0r	.	0r	.
4G	.	.	.	.	.	.	.
1A	.	2c	.	.	.	.	.
.	.	1B-y	.	.	.	.	.
2G	.	.	.	.	.	.	.
=43	=43	=43	=43	=43	=43	=43	=43
2F	.	2A	.	0r	.	0r	.
2.B-y	pro-	2.G	pro-	.	.	.	.
4A	.	4A	.	.	.	.	.
[2G	-vi-	4B-y	-vi-	.	.	.	.
.	.	4A	.	.	.	.	.
=44	=44	=44	=44	=44	=44	=44	=44
2G]	.	4B-y	-den-	0r	.	0r	.
.	.	4c	.	.	.	.	.
2F	-den-	1d	-ti-	.	.	.	.
1E	-ti-	.	.	.	.	.	.
.	.	2c#i	.	.	.	.	.
=45	=45	=45	=45	=45	=45	=45	=45
1D	-a	[0d	-a	0r	.	0r	.
2r	.	.	.	.	.	.	.
2G	ex-	.	.	.	.	.	.
=46	=46	=46	=46	=46	=46	=46	=46
2G	-sti-	0d]	.	0r	.	0r	.
2G	-tit	.	.	.	.	.	.
4F	con-	.	.	.	.	.	.
4E	.	.	.	.	.	.	.
4D	.	.	.	.	.	.	.
4C	.	.	.	.	.	.	.
=47	=47	=47	=47	=47	=47	=47	=47
4BB-y	.	2r	.	0r	.	0r	.
4C	.	.	.	.	.	.	.
4D	.	2d	ex-	.	.	.	.
4E	.	.	.	.	.	.	.
2F	.	2d	-sti-	.	.	.	.
2G	.	2d	-tit	.	.	.	.
=48	=48	=48	=48	=48	=48	=48	=48
2E	.	4c	con-	0r	.	0r	.
.	.	4B-y	.	.	.	.	.
1F	.	4A	.	.	.	.	.
.	.	4G	.	.	.	.	.
.	.	4F	.	.	.	.	.
.	.	4G	.	.	.	.	.
4E	.	4A	.	.	.	.	.
4D	.	4B-y	.	.	.	.	.
=49	=49	=49	=49	=49	=49	=49	=49
2E	.	2c	.	0r	.	0r	.
2.F	.	2.d	.	.	.	.	.
4E	.	4c	.	.	.	.	.
4D	.	4B-y	-se-	.	.	.	.
4C	.	4A	.	.	.	.	.
=50	=50	=50	=50	=50	=50	=50	=50
2D	.	2B-y	-cra-	0r	.	0r	.
2AA	-se-	1A	.	.	.	.	.
1BB-y	-cra-	.	.	.	.	.	.
.	.	2G	.	.	.	.	.
=51	=51	=51	=51	=51	=51	=51	=51
0AA	-tus	2A	.	0r	.	2r	.
.	.	4G	.	.	.	2cc	Tu-
.	.	4F	.	.	.	.	.
.	.	2E	.	.	.	2cc	-o
.	.	[2F	.	.	.	2cc	sem-
=52	=52	=52	=52	=52	=52	=52	=52
0r	.	4F]	.	1r	.	2cc	-per
.	.	4G	.	.	.	.	.
.	.	4A	.	.	.	2a	mi-
.	.	4F	.	.	.	.	.
.	.	2G	.	2r	.	2b-y	-ni-
.	.	2A	.	2f	Tu-	2cc	-mi-
=53	=53	=53	=53	=53	=53	=53	=53
0r	.	1F	-tus	2f	-o	1a	-ne
.	.	.	.	2f	sem-	.	.
.	.	1r	.	2f	-per	2r	.
.	.	.	.	2d	mi-	2f	po-
=54	=54	=54	=54	=54	=54	=54	=54
0r	.	0r	.	2e	-ni-	2g	-tens
.	.	.	.	2f	-mi-	2a	.
.	.	.	.	1d	-ne	2b-y	sit
.	.	.	.	.	.	[2a	et
=55	=55	=55	=55	=55	=55	=55	=55
0r	.	0r	.	2r	.	2a]	.
.	.	.	.	2B-y	po-	2g	.
.	.	.	.	2c	-tens	2a	se-
.	.	.	.	2d	.	4g	.
.	.	.	.	.	.	4f	.
=56	=56	=56	=56	=56	=56	=56	=56
0r	.	0r	.	2e	sit	2g	.
.	.	.	.	1d	et	2f	.
.	.	.	.	.	.	1e	.
.	.	.	.	2c#i	se-	.	.
=57	=57	=57	=57	=57	=57	=57	=57
0r	.	1r	.	2d	-cu-	2d	.
.	.	.	.	4c	.	2.a	.
.	.	.	.	4B-y	.	.	.
.	.	2r	.	2c	.	.	.
.	.	.	.	.	.	4g	.
.	.	2B-y	po-	2B-y	.	[2g	-cu-
=58	=58	=58	=58	=58	=58	=58	=58
2r	.	2c	-tens	1A	.	2g]	.
2D	po-	2d	.	.	.	2f#i	.
2.G	-tens	2e-i	sit	1G	-rus,	2g	-rus,
.	.	[2d	et	.	.	[2b-y	[po-
4F	.	.	.	.	.	.	.
=59	=59	=59	=59	=59	=59	=59	=59
1E-X	sit	2d]	.	2r	.	2b-]	.
.	.	2c	.	2G	po-	4a	-tens
.	.	.	.	.	.	4g	.
2D	et	2d	se-	2B-y	-tens	2f	sit
[2F	se-	4c	.	2A	sit	[2a	et
.	.	4B-y	.	.	.	.	.
=60	=60	=60	=60	=60	=60	=60	=60
2F]	.	2c	.	2f	et	4a]	.
.	.	.	.	.	.	4g	.
2G	.	2B-y	.	2e	se-	1g	se-
1D	-cu-	1A	-cu-	1d	-cu-	.	.
.	.	.	.	.	.	2f#i	-cu-
=61	=61	=61	=61	=61	=61	=61	=61
0GG	-rus,	0G	-rus,	1d	-rus,	0g	-rus,]
.	.	.	.	2r	.	.	.
.	.	.	.	2B-y	po-	.	.
=62	=62	=62	=62	=62	=62	=62	=62
2r	.	1r	.	2c	-tens	0r	.
2BB-y	po	.	.	2d	sit	.	.
2C	tens	2r	.	2e-i	et	.	.
2D	.	2F	po-	[2d	se-	.	.
=63	=63	=63	=63	=63	=63	=63	=63
1E-i	sit	2G	-tens	2d]	.	0r	.
.	.	2A	.	2c	-cu-	.	.
2.D	et	2B-y	sit	[1d	-rus,	.	.
.	.	[2A	et	.	.	.	.
4C	.	.	.	.	.	.	.
=64	=64	=64	=64	=64	=64	=64	=64
1BB-y	se-	2A]	.	1d]	.	0r	.
.	.	2G	.	.	.	.	.
2AA	.	2A	se-	2r	.	.	.
[2BB-y	.	4G	.	[2d	po-	.	.
.	.	4F	.	.	.	.	.
=65	=65	=65	=65	=65	=65	=65	=65
4BB-]	.	2G	.	4d]	.	2r	.
4C	.	.	.	4c	.	.	.
1D	-cu-	2F	.	2A	-tens	2f	po-
.	.	1E	-cu-	2B-y	et	2g	-tens
2C	.	.	.	2c	.	2a	.
=66	=66	=66	=66	=66	=66	=66	=66
1D	-rus,	2D	-rus,	2F	sit	2b-y	sit
.	.	1d	[et]	1f	et	1a	et
1G	po-	.	.	.	.	.	.
.	.	2B-y	se-	2e	se-	2g	se-
=67	=67	=67	=67	=67	=67	=67	=67
1F	-tens	2c	.	2f	.	2a	.
.	.	2d	.	4e	.	4g	.
.	.	.	.	4d	.	4f	.
2E	sit	2G	.	2c	.	2g	.
2D	.	[2A	.	[2d	.	2f	.
=68	=68	=68	=68	=68	=68	=68	=68
1A	et	4A]	.	2d]	.	1e	.
.	.	4B-y	.	.	.	.	.
.	.	4c	.	2c	.	.	.
.	.	4A	.	.	.	.	.
2.D	se-	4B-y	.	[1f	.	2d	.
.	.	4A	.	.	.	.	.
.	.	2d	.	.	.	[2a	.
4E	.	.	.	.	.	.	.
=69	=69	=69	=69	=69	=69	=69	=69
2F	.	2c	.	2f]	.	4a]	.
.	.	.	.	.	.	4g	.
2G	.	2B-y	.	2e	.	1g	-cu-
1D	-cu-	1A	-cu-	1d	-cu-	.	.
.	.	.	.	.	.	2f#i	.
=70	=70	=70	=70	=70	=70	=70	=70
00GG	-rus.	00G	-rus.	00d	-rus.	00g	-rus.
=71||	=71||	=71||	=71||	=71||	=71||	=71||	=71||
*M2/1	*	*M2/1	*	*M2/1	*	*M2/1	*
*met(C|)	*	*met(C|)	*	*met(C|)	*	*met(C|)	*
!!section: Secunda pars: Deus a quo sancta
!!!OMD: Secunda pars: Deus a quo sancta
0r	.	0r	.	1r	.	1a	De-
.	.	.	.	1d	De-	2a	-us
.	.	.	.	.	.	2a	a
=72	=72	=72	=72	=72	=72	=72	=72
0r	.	0r	.	2d	-us	1b-y	quo
.	.	.	.	2d	a	.	.
.	.	.	.	1e	quo	1cc	san-
=73	=73	=73	=73	=73	=73	=73	=73
0r	.	0r	.	1f	san-	1a	-cta
.	.	.	.	1d	-cta	2r	.
.	.	.	.	.	.	[2dd	de-
=74	=74	=74	=74	=74	=74	=74	=74
0r	.	0r	.	2r	.	4dd]	.
.	.	.	.	.	.	4cc	.
.	.	.	.	2.g	de-	4b-y	.
.	.	.	.	.	.	4a	.
.	.	.	.	.	.	1b-y	.
.	.	.	.	4f	.	.	.
.	.	.	.	4e	.	.	.
.	.	.	.	4d	.	.	.
=75	=75	=75	=75	=75	=75	=75	=75
0r	.	0r	.	2e	.	2g	.
.	.	.	.	2.f	.	2.a	.
.	.	.	.	4e	.	4g	.
.	.	.	.	4d	-si-	4f	-si-
.	.	.	.	4c	.	4e	.
=76	=76	=76	=76	=76	=76	=76	=76
0r	.	0r	.	2d	-de-	2f	-de-
.	.	.	.	2e	-ri-	2g	-ri-
.	.	.	.	2c	-a,	2e	-a,
.	.	.	.	[2f	de-	[2d	[de-
=77	=77	=77	=77	=77	=77	=77	=77
0r	.	0r	.	4f]	.	4d]	.
.	.	.	.	4e	.	4e	.
.	.	.	.	2.d	.	4f	-si-
.	.	.	.	.	.	4g	.
.	.	.	.	.	.	2a	-de-
.	.	.	.	4c	.	.	.
.	.	.	.	4B-y	-si-	[2b-y	.
.	.	.	.	4A	.	.	.
=78	=78	=78	=78	=78	=78	=78	=78
0r	.	0r	.	2G	-de-	2b-]	.
.	.	.	.	2.d	.	4a	.
.	.	.	.	.	.	4g	.
.	.	.	.	.	.	2b-y	.
.	.	.	.	4e	.	.	.
.	.	.	.	[2f	.	[2a	.
=79	=79	=79	=79	=79	=79	=79	=79
0r	.	0r	.	2f]	.	2a]	.
.	.	.	.	4e	.	1dd	.
.	.	.	.	4d	.	.	.
.	.	.	.	1e	-ri-	.	.
.	.	.	.	.	.	2cc#i	-ri-
=80	=80	=80	=80	=80	=80	=80	=80
1r	.	1r	.	1d	-a	0dd	-a]
1G	rec-	1d	rec-	1r	.	.	.
=81	=81	=81	=81	=81	=81	=81	=81
1.D	-ta	1.d	-ta	0r	.	0r	.
2E	con-	2c	con-	.	.	.	.
=82	=82	=82	=82	=82	=82	=82	=82
2F	-si-	2c	-si-	0r	.	0r	.
2G	-li-	2B-y	-li-	.	.	.	.
1D	-a	1A	-a	.	.	.	.
=83	=83	=83	=83	=83	=83	=83	=83
0r	.	0r	.	1g	rec-	1dd	rec-
.	.	.	.	[1d	-ta	[1dd	-ta
=84	=84	=84	=84	=84	=84	=84	=84
0r	.	0r	.	2d]	.	2dd]	.
.	.	.	.	2e	con-	2cc	con-
.	.	.	.	2f	-si-	2cc	-si-
.	.	.	.	2g	-li-	2b-y	-li-
=85	=85	=85	=85	=85	=85	=85	=85
1r	.	1r	.	1d	-a	1a	-a
1G	et	1d	et	1r	.	1r	.
=86	=86	=86	=86	=86	=86	=86	=86
2G	iu-	2d	iu-	0r	.	0r	.
1D	-sta	1d	-sta	.	.	.	.
2E	sunt	2c	sunt	.	.	.	.
=87	=87	=87	=87	=87	=87	=87	=87
2F	o-	2c	o-	0r	.	0r	.
2G	-pe-	2B-y	-pe-	.	.	.	.
1D	-ra,	1A	-ra,	.	.	.	.
=88	=88	=88	=88	=88	=88	=88	=88
1BB-y	et	1d	et	1f	et	1b-y	et
2BB-y	iu-	2d	iu-	2f	ius-	2b-y	ius-
[2BB-y	-sta	[2d	-sta	[2f	-ta	[2b-y	-ta
=89	=89	=89	=89	=89	=89	=89	=89
2BB-]	.	2d]	.	2f]	.	2b-]	.
2F	sunt	2c	sunt	2f	sunt	2a	sunt
2F	o-	2c	o-	2f	o-	2a	o-
2G	-pe-	2B-y	-pe-	2d	.	2g	-pe-
=90	=90	=90	=90	=90	=90	=90	=90
1D	-ra	[0A	-ra	1d	-pe-	1f	-ra
2r	.	.	.	2c	.	1r	.
2C	da	.	.	[2e	.	.	.
=91	=91	=91	=91	=91	=91	=91	=91
2D	ser-	1A]	.	4e]	.	0r	.
.	.	.	.	4d	.	.	.
2D	-vis	.	.	1d	.	.	.
1E	tu-	2r	.	.	.	.	.
.	.	2G	da	2c#i	.	.	.
=92	=92	=92	=92	=92	=92	=92	=92
1D	-is	2A	ser-	0d	-ra	0r	.
.	.	2A	-vis	.	.	.	.
1G	.	1B-y	tu-	.	.	.	.
=93	=93	=93	=93	=93	=93	=93	=93
2F	.	1A	-is	0r	.	0r	.
2.D	il-	.	.	.	.	.	.
.	.	1d	.	.	.	.	.
4E	.	.	.	.	.	.	.
4F	.	.	.	.	.	.	.
4G	.	.	.	.	.	.	.
=94	=94	=94	=94	=94	=94	=94	=94
2A	.	2c	.	0r	.	0r	.
2.F	.	2.A	il-	.	.	.	.
4G	.	4B-y	.	.	.	.	.
4A	.	4c	.	.	.	.	.
4F	.	4A	.	.	.	.	.
=95	=95	=95	=95	=95	=95	=95	=95
2G	.	4B-y	.	0r	.	0r	.
.	.	4c	.	.	.	.	.
2F	.	1d	.	.	.	.	.
1E	.	.	.	.	.	.	.
.	.	2c#i	.	.	.	.	.
=96	=96	=96	=96	=96	=96	=96	=96
0D	-lam	1d	-lam	0r	.	0r	.
.	.	2r	.	.	.	.	.
.	.	2d	quam	.	.	.	.
=97	=97	=97	=97	=97	=97	=97	=97
2r	.	2d	mun-	0r	.	0r	.
2D	quam	2d	-dus	.	.	.	.
2F	mun-	2c	da-	.	.	.	.
2F	-dus	[2d	.	.	.	.	.
=98	=98	=98	=98	=98	=98	=98	=98
1G	da-	2d]	.	0r	.	0r	.
.	.	4c	.	.	.	.	.
.	.	4B-y	.	.	.	.	.
2F	-re	2A	-re	.	.	.	.
2D	non	[2B-y	non	.	.	.	.
=99	=99	=99	=99	=99	=99	=99	=99
1E	po-	2B-]	.	0r	.	0r	.
.	.	4A	po-	.	.	.	.
.	.	4G	.	.	.	.	.
2D	-test	2F	-test	.	.	.	.
2BB-y	po-	[2B-y	pa-	.	.	.	.
=100	=100	=100	=100	=100	=100	=100	=100
1C	.	2B-]	.	0r	.	0r	.
.	.	2A	.	.	.	.	.
2BB-y	.	2B-y	.	.	.	.	.
[2D	.	4A	.	.	.	.	.
.	.	4G	.	.	.	.	.
=101	=101	=101	=101	=101	=101	=101	=101
2D]	.	2B-y	.	0r	.	0r	.
2C	.	2.A	.	.	.	.	.
2.D	.	.	.	.	.	.	.
.	.	4G	.	.	.	.	.
.	.	4F	.	.	.	.	.
4C	.	4E	.	.	.	.	.
=102	=102	=102	=102	=102	=102	=102	=102
2BB-y	.	2D	-cem,	0r	.	0r	.
4AA	.	1G	pa-	.	.	.	.
4GG	.	.	.	.	.	.	.
1AA	.	.	.	.	.	.	.
.	.	2F#i	.	.	.	.	.
=103	=103	=103	=103	=103	=103	=103	=103
0GG	-cem	0G	-cem	0r	.	0r	.
=104	=104	=104	=104	=104	=104	=104	=104
1r	.	1r	.	1r	.	1r	.
1D	ut	1A	ut	1d	ut	1f	ut
=105	=105	=105	=105	=105	=105	=105	=105
1BB-y	et	1d	et	1f	et	1b-y	et
1BB-y	cor-	1d	cor-	1f	cor-	1b-y	cor-
=106	=106	=106	=106	=106	=106	=106	=106
2.F	-da	1c	-da	0f	-da	0a	-da
4E	.	.	.	.	.	.	.
4D	.	2.d	nos-	.	.	.	.
4C	.	.	.	.	.	.	.
[2D	nos-	.	.	.	.	.	.
.	.	4c	.	.	.	.	.
=107	=107	=107	=107	=107	=107	=107	=107
4D]	.	4B-y	.	1.f	nos-	0dd	nos-
4C	.	4A	.	.	.	.	.
4BB-y	.	1A	.	.	.	.	.
4AA	.	.	.	.	.	.	.
1BB-y	.	.	.	.	.	.	.
.	.	2G	.	4e	.	.	.
.	.	.	.	4d	.	.	.
=108	=108	=108	=108	=108	=108	=108	=108
0AA	-tra	0A	-tra	1f	.	0cc	-tra
.	.	.	.	1e	-tra	.	.
=109	=109	=109	=109	=109	=109	=109	=109
1r	.	1r	.	1r	.	1r	.
1AA	man-	1A	man-	1e	man-	1cc	man-
=110	=110	=110	=110	=110	=110	=110	=110
1AA	-da-	1A	-da-	1e	-da-	1cc	-da-
1AA	-tis	1A	-tis	1e	-tis	1cc	-tis
=111	=111	=111	=111	=111	=111	=111	=111
1.D	tu-	1.A	tu-	1.f	tu-	1.a	tu-
2D	-is	2F	-is	2f	-is	2a	-is
=112	=112	=112	=112	=112	=112	=112	=112
1C	de-	1G	de-	1e	de-	1cc	de-
1D	-di-	1F	-di-	1d	-di-	2b-y	.
.	.	.	.	.	.	[2a	.
=113	=113	=113	=113	=113	=113	=113	=113
[0AA	-ta	[0A	-ta	[0c	-ta	2a]	.
.	.	.	.	.	.	4g	.
.	.	.	.	.	.	4f	.
.	.	.	.	.	.	2.e	-di-
.	.	.	.	.	.	4f	.
=114	=114	=114	=114	=114	=114	=114	=114
0AA]	.	0A]	.	0c]	.	0e	-ta
=115	=115	=115	=115	=115	=115	=115	=115
0r	.	0r	.	2r	.	2r	.
.	.	.	.	2c	et	2e	et
.	.	.	.	2d	hos-	2f	hos-
.	.	.	.	2e	-ti-	2g	-ti-
=116	=116	=116	=116	=116	=116	=116	=116
0r	.	0r	.	1.f	-um	1a	-um
.	.	.	.	.	.	2a	sub-
.	.	.	.	2d	sub-	2b-y	-la-
=117	=117	=117	=117	=117	=117	=117	=117
0r	.	0r	.	2e	-la-	2cc	-ta
.	.	.	.	2f	-ta	2.dd	for-
.	.	.	.	2.g	for-	.	.
.	.	.	.	.	.	4cc	.
.	.	.	.	.	.	4b-y	.
.	.	.	.	4f	.	4a	.
=118	=118	=118	=118	=118	=118	=118	=118
0r	.	0r	.	2d	-mi-	2b-y	-mi-
.	.	.	.	2f	.	2a	.
.	.	.	.	1e	-di-	1g	-di-
=119	=119	=119	=119	=119	=119	=119	=119
2r	.	2r	.	1d	-ne	1f	-ne
2D	et	2F	et	.	.	.	.
2E	hos-	2G	hos-	1r	.	1r	.
2F	-ti-	2A	-ti-	.	.	.	.
=120	=120	=120	=120	=120	=120	=120	=120
1G	-um	1.B-y	-um	0r	.	0r	.
2D	sub-	.	.	.	.	.	.
2E	.	2G	sub-	.	.	.	.
=121	=121	=121	=121	=121	=121	=121	=121
2F	-la-	2A	-la-	0r	.	0r	.
2G	-ta	2B-y	-ta	.	.	.	.
2.C	for-	2.c	for-	.	.	.	.
4D	.	4B-y	.	.	.	.	.
=122	=122	=122	=122	=122	=122	=122	=122
4E	-mi-	2G	.	0r	.	0r	.
4F	.	.	.	.	.	.	.
1G	-di-	2B-y	-mi-	.	.	.	.
.	.	1A	-di-	.	.	.	.
2F#i	.	.	.	.	.	.	.
=123	=123	=123	=123	=123	=123	=123	=123
1G	-ne	1G	-ne	1r	.	1r	.
[1D	tem-	[1A	tem-	[1d	tem-	[1f	tem-
=124	=124	=124	=124	=124	=124	=124	=124
2D]	.	2A]	.	2d]	.	2f]	.
2D	-po-	2A	-po-	2d	-po-	2f	-po-
1D	-ra,	1A	-ra,	1d	-ra	1f	-ra
=125	=125	=125	=125	=125	=125	=125	=125
0r	.	0r	.	2r	.	2r	.
.	.	.	.	2d	sint	2a	sint
.	.	.	.	2d	tu-	2a	tu-
.	.	.	.	2c	-a	[2a	-a
=126	=126	=126	=126	=126	=126	=126	=126
0r	.	0r	.	1d	pro-	2a]	.
.	.	.	.	.	.	2b-y	pro-
.	.	.	.	2c	-tec-	2a	-tec-
.	.	.	.	2B-y	-ti-	2g	-ti-
=127	=127	=127	=127	=127	=127	=127	=127
0r	.	0r	.	2A	-o-	2f	-o-
.	.	.	.	2.G	.	2.g	.
.	.	.	.	4A	.	4f	.
.	.	.	.	4B-y	.	4d	.
.	.	.	.	4G	.	4e	.
=128	=128	=128	=128	=128	=128	=128	=128
0r	.	0r	.	4A	.	4f	.
.	.	.	.	4B-y	.	4g	.
.	.	.	.	4c	.	2a	.
.	.	.	.	4A	.	.	.
.	.	.	.	2B-y	.	4f	.
.	.	.	.	.	.	4g	.
.	.	.	.	4A	.	4a	.
.	.	.	.	4G	.	4b-y	.
=129	=129	=129	=129	=129	=129	=129	=129
0r	.	0r	.	2A	-ne	4cc	-ne
.	.	.	.	.	.	4a	.
.	.	.	.	1d	tran-	1b-y	tran-
.	.	.	.	4c	.	4a	.
.	.	.	.	4B-y	.	4g	.
=130	=130	=130	=130	=130	=130	=130	=130
0r	.	0r	.	2A	.	2f	.
.	.	.	.	2G	.	1g	-quil-
.	.	.	.	1A	-quil-	.	.
.	.	.	.	.	.	2f#i	.
=131	=131	=131	=131	=131	=131	=131	=131
1r	.	1r	.	1G	-la,	1g	-la,
[1D	tem-	[1A	tem-	[1d	tem-	[1f	tem-
=132	=132	=132	=132	=132	=132	=132	=132
2D]	.	2A]	.	2d]	.	2f]	.
2D	-po-	2A	-po-	2d	-po-	2f	-po-
1D	-ra	1A	-ra	1d	-ra	1f	-ra
=133	=133	=133	=133	=133	=133	=133	=133
2r	.	2r	.	2r	.	2r	.
2D	sint	2d	sint	2f	sint	2a	sint
2D	tu-	2d	tu-	2f	tu-	2a	tu-
[2F	-a	2c	-a	[2f	-a	[2a	-a
=134	=134	=134	=134	=134	=134	=134	=134
2F]	.	1d	pro-	2f]	.	2a]	.
2BB-y	pro-	.	.	2f	pro-	2b-y	pro-
2F	-tec-	2c	-tec-	2f	-tec-	2a	-tec-
2G	-ti-	2B-y	-ti-	2d	-ti-	2g	-ti-
=135	=135	=135	=135	=135	=135	=135	=135
2D	-o-	2A	-o-	2d	-o-	2f	-o-
2GG	.	2.G	.	2d	-ne	2.g	.
1G	.	.	.	1B-y	tran-	.	.
.	.	4A	.	.	.	4f	.
.	.	4B-y	.	.	.	4d	.
.	.	4G	.	.	.	4e	.
=136	=136	=136	=136	=136	=136	=136	=136
1F	.	4A	.	2c	.	4f	.
.	.	4B-y	.	.	.	4g	.
.	.	4c	.	2A	.	2a	.
.	.	4A	.	.	.	.	.
2D	-ne	2B-y	-ne	1d	.	4f	.
.	.	.	.	.	.	4g	.
[2F	tran-	4A	tran-	.	.	4a	.
.	.	4G	.	.	.	4b-y	.
=137	=137	=137	=137	=137	=137	=137	=137
4F]	.	2A	.	2c	.	4cc	.
4E	.	.	.	.	.	4a	.
4D	.	1d	.	1f	.	1b-y	-ne
4C	.	.	.	.	.	.	.
2BB-y	.	.	.	.	.	.	.
2C	.	4c	.	2e	.	4a	tran-
.	.	4B-y	.	.	.	4g	.
=138	=138	=138	=138	=138	=138	=138	=138
2D	.	2A	.	2d	.	2f	.
2E-i	.	2G	.	2c	.	1g	-quil-
1D	-quil-	1A	-quil-	1d	-quil-	.	.
.	.	.	.	.	.	2f#i	.
=139	=139	=139	=139	=139	=139	=139	=139
0GG	-la	1G	-la	1B-y	-la	0g	-la
.	.	1r	.	1r	.	.	.
=140	=140	=140	=140	=140	=140	=140	=140
1r	.	1B-y	ut	1d	ut	1r	.
1BB-y	ut	2B-y	re-	2d	re-	1f	ut
.	.	2B-y	-gi-	2d	-gi-	.	.
=141	=141	=141	=141	=141	=141	=141	=141
2BB-y	re-	1B-y	-bus	1d	-bus	2f	re-
2BB-y	-gi-	.	.	.	.	2f	-gi-
1BB-y	-bus	2B-y	et	2d	et	1f	-bus
.	.	2B-y	prin-	2d	prin-	.	.
=142	=142	=142	=142	=142	=142	=142	=142
2BB-y	et	2B-y	-ci-	2d	-ci-	2f	et
2BB-y	prin-	2B-y	-pi-	2d	-pi-	2f	prin-
2BB-y	-ci-	[1B-y	-bus	1d	-bus	2f	-ci-
2BB-y	-pi-	.	.	.	.	2f	-pi-
=143	=143	=143	=143	=143	=143	=143	=143
1BB-y	-bus	1B-]	.	1d	chris-	1f	-bus
[1E-X	chris-	[1B-y	chris-	[1e-X	.	[1g	chris-
=144	=144	=144	=144	=144	=144	=144	=144
2E-]	.	1B-]	.	2e-]	.	1g]	.
2E-i	-ti-	.	.	4d	-ti-	.	.
.	.	.	.	4c	.	.	.
1G	-a-	1B-y	-ti-	2d	-a-	1g	-ti-
.	.	.	.	2eny	.	.	.
=145	=145	=145	=145	=145	=145	=145	=145
1F	-nis	1c	-a-	0f	-nis	1a	-a-
1r	.	1d	-nis	.	.	1d	-nis
=146	=146	=146	=146	=146	=146	=146	=146
1BB-y	pa-	1r	.	1r	.	1f	pa-
1BB-y	-cem	1B-y	pa-	1d	pa-	1f	-cem
=147	=147	=147	=147	=147	=147	=147	=147
1r	.	1B-y	-cem	1d	-cem	1r	.
1BB-y	et	1r	.	1r	.	1f	et
=148	=148	=148	=148	=148	=148	=148	=148
2BB-y	ver-	1B-y	et	1d	et	2f	ver-
1BB-y	-am	.	.	.	.	1f	-am
.	.	2B-y	ver-	2d	ver-	.	.
2BB-y	con-	[2B-y	-am	[2d	-am	2f	con-
=149	=149	=149	=149	=149	=149	=149	=149
2BB-y	-cor-	2B-]	.	2d]	.	2f	-cor-
2BB-y	-di-	2B-y	con-	2d	con-	2f	-di-
1BB-y	-am	2B-y	-cor-	2d	-cor-	1f	-am
.	.	2B-y	-di-	2d	-di-	.	.
=150	=150	=150	=150	=150	=150	=150	=150
2r	.	1B-y	-am	1d	-am	2r	.
2GG	do-	.	.	.	.	2g	do-
2GG	-na-	2r	.	2r	.	2g	-na-
2GG	-re	2B-y	do-	2d	do-	2g	-re
=151	=151	=151	=151	=151	=151	=151	=151
2.BB-y	dig-	2B-y	-na-	2d	-na-	2f	dig-
.	.	2B-y	-re	1d	-re	2d	.
4C	.	.	.	.	.	.	.
4D	.	[1A	dig-	.	.	[1f	.
4E	.	.	.	.	.	.	.
[2F	.	.	.	4c	dig-	.	.
.	.	.	.	4B-y	.	.	.
=152	=152	=152	=152	=152	=152	=152	=152
2F]	.	2A]	.	2c	.	2f]	.
4E	.	2B-y	.	1F	-ne-	2g	.
4D	.	.	.	.	.	.	.
1C	-ne-	1c	-ne-	.	.	1a	-ne-
.	.	.	.	2E	.	.	.
=153	=153	=153	=153	=153	=153	=153	=153
0BB-y	-ris	0d	-ris	2F	-ris	1b-y	-ris
.	.	.	.	1B-y	te	.	.
.	.	.	.	.	.	2.b-y	te
.	.	.	.	2B-y	ro-	.	.
.	.	.	.	.	.	4a	ro-
=154	=154	=154	=154	=154	=154	=154	=154
0r	.	0r	.	2e-i	-ga-	2g	-ga-
.	.	.	.	2d	-mus	2f	-mus
.	.	.	.	2c	au-	1g	au-
.	.	.	.	2B-y	.	.	.
=155	=155	=155	=155	=155	=155	=155	=155
1r	.	0r	.	1c	-di	1a	-di
2r	.	.	.	1B-y	nos,	[1b-y	nos,
[2BB-y	te	.	.	.	.	.	.
=156	=156	=156	=156	=156	=156	=156	=156
2BB-]	.	2.B-y	te	0r	.	1b-]	.
2BB-y	ro-	.	.	.	.	.	.
.	.	4A	ro-	.	.	.	.
2E-i	-ga-	2G	-ga-	.	.	1r	.
2D	-mus	2F	-mus	.	.	.	.
=157	=157	=157	=157	=157	=157	=157	=157
2C	au-	1G	au-	0r	.	0r	.
2BB-y	.	.	.	.	.	.	.
1C	-di-	1A	-di	.	.	.	.
=158	=158	=158	=158	=158	=158	=158	=158
2.BB-y	-nos	1B-y	nos,	1.d	te	1r	.
4AA	.	.	.	.	.	.	.
2GG	.	1r	.	.	.	2.b-y	te
2FF	.	.	.	2d	ro-	.	.
.	.	.	.	.	.	4a	ro-
=159	=159	=159	=159	=159	=159	=159	=159
2GG	[te	2.B-y	te	2d	-ga-	2g	-ga-
2D	ro-	.	.	2d	-mus	2f	-mus
.	.	4A	ro-	.	.	.	.
2E	-ga-	2G	-ga-	2B-y	au-	2g	au-
2D	-mus]	2F	-mus	[2d	.	[2a	.
=160	=160	=160	=160	=160	=160	=160	=160
1E	au-	1G	au-	2d]	.	4a]	.
.	.	.	.	.	.	4g	.
.	.	.	.	2c	-di	2g	-di
1D	-di	1A	-di	1d	nos,	[1f	nos,
=161	=161	=161	=161	=161	=161	=161	=161
2.BB-y	nos	1B-y	nos,	1.d	te	1f]	.
4AA	.	.	.	.	.	.	.
2GG	.	1r	.	.	.	2.b-y	te
2FF	.	.	.	2d	ro-	.	.
.	.	.	.	.	.	4a	ro-
=162	=162	=162	=162	=162	=162	=162	=162
2GG	te	2.B-y	te	2d	-ga-	2g	-ga-
2D	ro-	.	.	2d	-mus	2f	-mus
.	.	4A	ro-	.	.	.	.
2E	-ga-	2G	-ga-	2B-y	au-	2g	au-
2D	-mus	2F	-mus	[2d	-di	[2a	.
=163	=163	=163	=163	=163	=163	=163	=163
1E	au-	1G	au-	2d]	.	4a]	.
.	.	.	.	.	.	4g	.
.	.	.	.	2c	.	1g	-di
1D	-di	1A	.	[1dl	nos.	.	.
.	.	.	.	.	.	2f#i	.
=164	=164	=164	=164	=164	=164	=164	=164
[0GGl	nos.	1.B-y	.	0d_	.	[0gl	nos.
.	.	2G	-di-	.	.	.	.
=165	=165	=165	=165	=165	=165	=165	=165
00GG]	.	00Gl	-nos.	00d]	.	00g]	.
==	==	==	==	==	==	==	==
*-	*-	*-	*-	*-	*-	*-	*-
!!!system-decoration: [*]
!!!RDF**kern: i = editorial accidental
!!!RDF**kern: l = terminal long
!!!ENC: Simon Frisch
!!!END: 2024/4/9
!!!EED: Benjamin Ory
!!!EEV: 2024/04/09
!!!YEC: Copyright 2024 Simon Frisch, All Rights Reserved
!!!ONB: Translated from MusicXML on 2024/04/09
!!!verovio: header encoded
!!!header-left: Edited by @{ENC} (2024)\n
!!!header-right:
!!!header-center:
